img/twitter.svg

<?xml version="1.0" encoding="UTF-8"?>
<svg width="22px" height="18px" viewBox="0 0 22 18" version="1.1" xmlns="http://www.w3.org/2000/svg" xmlns:xlink="http://www.w3.org/1999/xlink">
    <!-- Generator: Sketch 43.2 (39069) - http://www.bohemiancoding.com/sketch -->
    <title>twitter</title>
    <desc>Created with Sketch.</desc>
    <defs></defs>
    <g id="Page-1" stroke="none" stroke-width="1" fill="none" fill-rule="evenodd">
        <g id="twitter" transform="translate(-1.000000, -3.000000)">
            <polygon id="Shape" points="0 0 24 0 24 24 0 24"></polygon>
            <path d="M22.162,5.656 C21.398557,5.99369373 20.5889601,6.21547339 19.76,6.314 C20.6337508,5.79143332 21.2877055,4.96901423 21.6,4 C20.78,4.488 19.881,4.83 18.944,5.015 C17.6498495,3.63031951 15.5862776,3.28908903 13.9152663,4.18345292 C12.244255,5.07781681 11.3836288,6.98414575 11.818,8.829 C8.45502254,8.66044327 5.32174389,7.07199458 3.198,4.459 C2.82629012,5.09745032 2.63095514,5.82322672 2.632,6.562 C2.632,8.012 3.37,9.293 4.492,10.043 C3.82800881,10.0220962 3.1786324,9.84278055 2.598,9.52 L2.598,9.572 C2.59841319,11.5630358 4.00151442,13.2781232 5.953,13.673 C5.33661503,13.8400369 4.69030669,13.8646582 4.063,13.745 C4.61012698,15.4491831 6.18045142,16.6167778 7.97,16.65 C6.21794158,18.0260194 3.99074,18.6491034 1.779,18.382 C3.69069779,19.6114328 5.91609682,20.2641239 8.189,20.262 C15.882,20.262 20.089,13.889 20.089,8.362 C20.089,8.182 20.084,8 20.076,7.822 C20.8948641,7.23016766 21.6015987,6.49701939 22.163,5.657 L22.162,5.656 Z" id="Shape" fill="#F6F6F5" fill-rule="nonzero"></path>
        </g>
    </g>
</svg>

<svg width="22" height="18" xmlns="http://www.w3.org/2000/svg"><g transform="translate(-1 -3)" fill="none" fill-rule="evenodd"><path d="M0 0L24 0 24 24 0 24z"/><path d="M22.162 5.656a8.384 8.384 0 0 1-2.402.658A4.196 4.196 0 0 0 21.6 4c-.82.488-1.719.83-2.656 1.015a4.182 4.182 0 0 0-7.126 3.814 11.874 11.874 0 0 1-8.62-4.37 4.168 4.168 0 0 0-.566 2.103c0 1.45.738 2.731 1.86 3.481a4.168 4.168 0 0 1-1.894-.523v.052a4.185 4.185 0 0 0 3.355 4.101 4.21 4.21 0 0 1-1.89.072A4.185 4.185 0 0 0 7.97 16.65a8.394 8.394 0 0 1-6.191 1.732 11.83 11.83 0 0 0 6.41 1.88c7.693 0 11.9-6.373 11.9-11.9 0-.18-.005-.362-.013-.54a8.496 8.496 0 0 0 2.087-2.165l-.001-.001z" fill="#F6F6F5" fill-rule="nonzero"/></g></svg>
